!!!OTL: ICH MOECHTE WOHL DER KAISER SEIN
!!!ARE: Europa, Mitteleuropa, Deutschland
!!!SCT: B0678
!!!YEM: Copyright 1995, estate of Helmut Schaffrath.
**kern
*ICvox
*Ivox
*M4/4
*k[f#]
*G:
{8d
=1
4.g
8d
4.b
8g
=2
4.dd
8b
4.g}
{8b
=3
2d
2f#
=4
2g
8r}
{8e
8f#
8g
=5
4a
4a
4a
4a
=6
4f#
4d
8r}
{8e
8f#
8g
=7
4a
4a
4a
4a
=8
4f#
8d}
{8d
4d
4d
=9
4f#
4d
4f#
4d
=10
4f#
8r}
{8f#
4f#
4f#
=11
4a
4f#
4a
4f#
=12
4a
8r}
{8a
4a
4a
=13
4cc
4a
4cc
4a
=14
2.cc}
{4d
=15
4.g
8d
4.b
8g
=16
4.dd
8b
4g
8r}
{8b
=17
2d
2f#
=18
2g
4.r}
==
!!!AGN: Scherz - Lied
!!!ONB: ESAC (Essen Associative Code) Database: BOEHME
!!!AMT: simple quadruple
!!!AIN: vox
!!!EED: Helmut Schaffrath
!!!EEV: 1.0
*-
